gnome/icons/Varda/apps/scalable/standard-notes.svg

<?xml version="1.0" encoding="UTF-8" standalone="no"?>
<svg
   xmlns:dc="http://purl.org/dc/elements/1.1/"
   xmlns:cc="http://creativecommons.org/ns#"
   xmlns:rdf="http://www.w3.org/1999/02/22-rdf-syntax-ns#"
   xmlns:svg="http://www.w3.org/2000/svg"
   xmlns="http://www.w3.org/2000/svg"
   xmlns:sodipodi="http://sodipodi.sourceforge.net/DTD/sodipodi-0.dtd"
   xmlns:inkscape="http://www.inkscape.org/namespaces/inkscape"
   width="64px"
   height="64px"
   viewBox="0 0 64 64"
   version="1.1"
   id="svg45"
   sodipodi:docname="standard-notes.svg"
   inkscape:version="1.0.2 (e86c870879, 2021-01-15)">
  <metadata
     id="metadata51">
    <rdf:RDF>
      <cc:Work
         rdf:about="">
        <dc:format>image/svg+xml</dc:format>
        <dc:type
           rdf:resource="http://purl.org/dc/dcmitype/StillImage" />
      </cc:Work>
    </rdf:RDF>
  </metadata>
  <defs
     id="defs49" />
  <sodipodi:namedview
     pagecolor="#ffffff"
     bordercolor="#666666"
     borderopacity="1"
     objecttolerance="10"
     gridtolerance="10"
     guidetolerance="10"
     inkscape:pageopacity="0"
     inkscape:pageshadow="2"
     inkscape:window-width="2560"
     inkscape:window-height="1375"
     id="namedview47"
     showgrid="false"
     inkscape:zoom="15.75"
     inkscape:cx="32"
     inkscape:cy="32"
     inkscape:window-x="0"
     inkscape:window-y="0"
     inkscape:window-maximized="1"
     inkscape:current-layer="surface1" />
  <g
     id="surface1">
    <path
       style="fill:#bdbdbd;fill-opacity:1;fill-rule:nonzero;stroke:none"
       d="m 44.316406,58.707031 8.601563,-8.597656 h -6.617188 c -1.097656,0 -1.984375,0.886719 -1.984375,1.984375 z m 0,0"
       id="path2" />
    <path
       style="fill:#733447;fill-opacity:1;fill-rule:nonzero;stroke:none"
       d="m 10.582031,3.144531 h 42.335938 c 1.460937,0 2.644531,1.1875 2.644531,2.648438 v 52.914062 c 0,1.460938 -1.183594,2.648438 -2.644531,2.648438 H 10.582031 c -1.460937,0 -2.644531,-1.1875 -2.644531,-2.648438 V 5.792969 c 0,-1.460938 1.183594,-2.648438 2.644531,-2.648438 z m 0,0"
       id="path4" />
    <path
       style="fill:#d0ebee;fill-opacity:1;fill-rule:nonzero;stroke:none"
       d="m 11.90625,5.792969 c -0.734375,0 -1.324219,0.589843 -1.324219,1.320312 v 50.273438 c 0,0.730469 0.589844,1.320312 1.324219,1.320312 H 42.332031 L 52.917969,48.125 V 7.113281 c 0,-0.730469 -0.589844,-1.320312 -1.324219,-1.320312 z m 0,0"
       id="path6" />
    <path
       style="fill:#733447;fill-opacity:1;fill-rule:nonzero;stroke:none"
       d="M 9.921875,3.144531 C 8.824219,3.144531 7.9375,4.03125 7.9375,5.128906 v 8.601563 h 47.625 V 5.128906 c 0,-1.097656 -0.886719,-1.984375 -1.984375,-1.984375 z m 0,0"
       id="path8" />
    <path
       style="fill:#0c0e11;fill-opacity:1;fill-rule:nonzero;stroke:none"
       d="m 15.875,19.019531 h 1.324219 c 0.730469,0 1.320312,0.535157 1.320312,1.191407 v 0.265624 c 0,0.65625 -0.589843,1.191407 -1.320312,1.191407 H 15.875 c -0.730469,0 -1.324219,-0.535157 -1.324219,-1.191407 v -0.265624 c 0,-0.65625 0.59375,-1.191407 1.324219,-1.191407 z m 0,0"
       id="path10" />
    <path
       style="fill:#0c0e11;fill-opacity:0.23529412;fill-rule:nonzero;stroke:none"
       d="m 15.875,7.113281 c 0.730469,0 1.324219,0.59375 1.324219,1.324219 0,0.730469 -0.59375,1.324219 -1.324219,1.324219 -0.730469,0 -1.324219,-0.59375 -1.324219,-1.324219 0,-0.730469 0.59375,-1.324219 1.324219,-1.324219 z m 0,0"
       id="path12" />
    <path
       style="fill:#0c0e11;fill-opacity:1;fill-rule:nonzero;stroke:none"
       d="M 22.488281,26.957031 H 47.625 c 0.730469,0 1.324219,0.59375 1.324219,1.324219 0,0.730469 -0.59375,1.324219 -1.324219,1.324219 H 22.488281 c -0.730469,0 -1.320312,-0.59375 -1.320312,-1.324219 0,-0.730469 0.589843,-1.324219 1.320312,-1.324219 z m 0,0"
       id="path14" />
    <path
       style="fill:#d0ebee;fill-opacity:1;fill-rule:nonzero;stroke:none"
       d="m 15.875,5.792969 c -1.464844,0 -2.644531,1.179687 -2.644531,2.644531 0,1.464844 1.179687,2.644531 2.644531,2.644531 1.464844,0 2.644531,-1.179687 2.644531,-2.644531 0,-1.464844 -1.179687,-2.644531 -2.644531,-2.644531 z m 0,1.320312 c 0.734375,0 1.324219,0.589844 1.324219,1.324219 0,0.734375 -0.589844,1.324219 -1.324219,1.324219 -0.734375,0 -1.324219,-0.589844 -1.324219,-1.324219 0,-0.734375 0.589844,-1.324219 1.324219,-1.324219 z m 0,0"
       id="path16" />
    <path
       style="fill:#0c0e11;fill-opacity:1;fill-rule:nonzero;stroke:none"
       d="m 15.875,34.894531 h 1.324219 c 0.730469,0 1.320312,0.59375 1.320312,1.324219 0,0.730469 -0.589843,1.324219 -1.320312,1.324219 H 15.875 c -0.730469,0 -1.324219,-0.59375 -1.324219,-1.324219 0,-0.730469 0.59375,-1.324219 1.324219,-1.324219 z m 0,0"
       id="path18" />
    <path
       style="fill:#0c0e11;fill-opacity:0.23529412;fill-rule:nonzero;stroke:none"
       d="m 31.75,7.113281 c 0.730469,0 1.324219,0.59375 1.324219,1.324219 0,0.730469 -0.59375,1.324219 -1.324219,1.324219 -0.730469,0 -1.324219,-0.59375 -1.324219,-1.324219 0,-0.730469 0.59375,-1.324219 1.324219,-1.324219 z m 0,0"
       id="path20" />
    <path
       style="fill:#0c0e11;fill-opacity:1;fill-rule:nonzero;stroke:none"
       d="m 15.875,42.832031 h 1.324219 c 0.730469,0 1.320312,0.59375 1.320312,1.324219 0,0.730469 -0.589843,1.324219 -1.320312,1.324219 H 15.875 c -0.730469,0 -1.324219,-0.59375 -1.324219,-1.324219 0,-0.730469 0.59375,-1.324219 1.324219,-1.324219 z m 0,0"
       id="path22" />
    <path
       style="fill:#d0ebee;fill-opacity:1;fill-rule:nonzero;stroke:none"
       d="m 31.75,5.792969 c -1.464844,0 -2.644531,1.179687 -2.644531,2.644531 0,1.464844 1.179687,2.644531 2.644531,2.644531 1.464844,0 2.644531,-1.179687 2.644531,-2.644531 0,-1.464844 -1.179687,-2.644531 -2.644531,-2.644531 z m 0,1.320312 c 0.734375,0 1.324219,0.589844 1.324219,1.324219 0,0.734375 -0.589844,1.324219 -1.324219,1.324219 -0.734375,0 -1.324219,-0.589844 -1.324219,-1.324219 0,-0.734375 0.589844,-1.324219 1.324219,-1.324219 z m 0,0"
       id="path24" />
    <path
       style="fill:#0c0e11;fill-opacity:1;fill-rule:nonzero;stroke:none"
       d="m 22.488281,19.019531 h 11.90625 c 0.730469,0 1.324219,0.59375 1.324219,1.324219 0,0.730469 -0.59375,1.324219 -1.324219,1.324219 h -11.90625 c -0.730469,0 -1.320312,-0.59375 -1.320312,-1.324219 0,-0.730469 0.589843,-1.324219 1.320312,-1.324219 z m 0,0"
       id="path26" />
    <path
       style="fill:#0c0e11;fill-opacity:0.23529412;fill-rule:nonzero;stroke:none"
       d="m 47.625,7.113281 c 0.730469,0 1.324219,0.59375 1.324219,1.324219 0,0.730469 -0.59375,1.324219 -1.324219,1.324219 -0.730469,0 -1.324219,-0.59375 -1.324219,-1.324219 0,-0.730469 0.59375,-1.324219 1.324219,-1.324219 z m 0,0"
       id="path28" />
    <path
       style="fill:#0c0e11;fill-opacity:1;fill-rule:nonzero;stroke:none"
       d="M 22.488281,34.894531 H 43.65625 c 0.730469,0 1.324219,0.550781 1.324219,1.230469 v 0.1875 c 0,0.679688 -0.59375,1.230469 -1.324219,1.230469 H 22.488281 c -0.730469,0 -1.320312,-0.550781 -1.320312,-1.230469 V 36.125 c 0,-0.679688 0.589843,-1.230469 1.320312,-1.230469 z m 0,0"
       id="path30" />
    <path
       style="fill:#d0ebee;fill-opacity:1;fill-rule:nonzero;stroke:none"
       d="m 47.625,5.792969 c -1.464844,0 -2.644531,1.179687 -2.644531,2.644531 0,1.464844 1.179687,2.644531 2.644531,2.644531 1.464844,0 2.644531,-1.179687 2.644531,-2.644531 0,-1.464844 -1.179687,-2.644531 -2.644531,-2.644531 z m 0,1.320312 c 0.734375,0 1.324219,0.589844 1.324219,1.324219 0,0.734375 -0.589844,1.324219 -1.324219,1.324219 -0.734375,0 -1.324219,-0.589844 -1.324219,-1.324219 0,-0.734375 0.589844,-1.324219 1.324219,-1.324219 z m 0,0"
       id="path32" />
    <path
       style="fill:#0c0e11;fill-opacity:1;fill-rule:nonzero;stroke:none"
       d="m 15.875,26.957031 h 1.324219 c 0.730469,0 1.320312,0.59375 1.320312,1.324219 0,0.730469 -0.589843,1.324219 -1.320312,1.324219 H 15.875 c -0.730469,0 -1.324219,-0.59375 -1.324219,-1.324219 0,-0.730469 0.59375,-1.324219 1.324219,-1.324219 z m 0,0"
       id="path34" />
    <path
       style="fill:#0c0e11;fill-opacity:1;fill-rule:nonzero;stroke:none"
       d="m 22.488281,42.832031 h 15.875 c 0.730469,0 1.324219,0.59375 1.324219,1.324219 0,0.730469 -0.59375,1.324219 -1.324219,1.324219 h -15.875 c -0.730469,0 -1.320312,-0.59375 -1.320312,-1.324219 0,-0.730469 0.589843,-1.324219 1.320312,-1.324219 z m 0,0"
       id="path36" />
    <path
       style="fill:#0c0e11;fill-opacity:1;fill-rule:nonzero;stroke:none"
       d="M 41.011719,19.019531 H 47.625 c 0.730469,0 1.324219,0.59375 1.324219,1.324219 0,0.730469 -0.59375,1.324219 -1.324219,1.324219 h -6.613281 c -0.730469,0 -1.324219,-0.59375 -1.324219,-1.324219 0,-0.730469 0.59375,-1.324219 1.324219,-1.324219 z m 0,0"
       id="path38" />
    <path
       style="fill:#52677c;fill-opacity:1;fill-rule:nonzero;stroke:none"
       d="M 52.917969,48.125 42.332031,58.707031 h 9.261719 c 0.734375,0 1.324219,-0.589843 1.324219,-1.320312 z m 0,0"
       id="path40" />
    <path
       style="fill:#d0ebee;fill-opacity:1;fill-rule:nonzero;stroke:none"
       d="M 42.332031,58.707031 52.917969,48.125 H 43.65625 c -0.734375,0 -1.324219,0.589844 -1.324219,1.324219 z m 0,0"
       id="path42" />
  </g>
</svg>

<?xml version="1.0" encoding="UTF-8"?>
<svg xmlns="http://www.w3.org/2000/svg" xmlns:xlink="http://www.w3.org/1999/xlink" width="64px" height="64px" viewBox="0 0 64 64" version="1.1">
<g id="surface1">
<path style=" stroke:none;fill-rule:nonzero;fill:rgb(74.117649%,74.117649%,74.117649%);fill-opacity:1;" d="M 44.316406 58.707031 L 52.917969 50.109375 L 46.300781 50.109375 C 45.203125 50.109375 44.316406 50.996094 44.316406 52.09375 Z M 44.316406 58.707031 "/>
<path style=" stroke:none;fill-rule:nonzero;fill:rgb(1.176471%,60.784316%,89.803922%);fill-opacity:1;" d="M 10.582031 3.144531 L 52.917969 3.144531 C 54.378906 3.144531 55.5625 4.332031 55.5625 5.792969 L 55.5625 58.707031 C 55.5625 60.167969 54.378906 61.355469 52.917969 61.355469 L 10.582031 61.355469 C 9.121094 61.355469 7.9375 60.167969 7.9375 58.707031 L 7.9375 5.792969 C 7.9375 4.332031 9.121094 3.144531 10.582031 3.144531 Z M 10.582031 3.144531 "/>
<path style=" stroke:none;fill-rule:nonzero;fill:rgb(93.333334%,93.333334%,93.333334%);fill-opacity:1;" d="M 11.90625 5.792969 C 11.171875 5.792969 10.582031 6.382812 10.582031 7.113281 L 10.582031 57.386719 C 10.582031 58.117188 11.171875 58.707031 11.90625 58.707031 L 42.332031 58.707031 L 52.917969 48.125 L 52.917969 7.113281 C 52.917969 6.382812 52.328125 5.792969 51.59375 5.792969 Z M 11.90625 5.792969 "/>
<path style=" stroke:none;fill-rule:nonzero;fill:rgb(16.078432%,71.372551%,96.470588%);fill-opacity:1;" d="M 9.921875 3.144531 C 8.824219 3.144531 7.9375 4.03125 7.9375 5.128906 L 7.9375 13.730469 L 55.5625 13.730469 L 55.5625 5.128906 C 55.5625 4.03125 54.675781 3.144531 53.578125 3.144531 Z M 9.921875 3.144531 "/>
<path style=" stroke:none;fill-rule:nonzero;fill:rgb(25.882354%,25.882354%,25.882354%);fill-opacity:1;" d="M 15.875 19.019531 L 17.199219 19.019531 C 17.929688 19.019531 18.519531 19.554688 18.519531 20.210938 L 18.519531 20.476562 C 18.519531 21.132812 17.929688 21.667969 17.199219 21.667969 L 15.875 21.667969 C 15.144531 21.667969 14.550781 21.132812 14.550781 20.476562 L 14.550781 20.210938 C 14.550781 19.554688 15.144531 19.019531 15.875 19.019531 Z M 15.875 19.019531 "/>
<path style=" stroke:none;fill-rule:nonzero;fill:rgb(1.176471%,60.784316%,89.803922%);fill-opacity:0.235294;" d="M 15.875 7.113281 C 16.605469 7.113281 17.199219 7.707031 17.199219 8.4375 C 17.199219 9.167969 16.605469 9.761719 15.875 9.761719 C 15.144531 9.761719 14.550781 9.167969 14.550781 8.4375 C 14.550781 7.707031 15.144531 7.113281 15.875 7.113281 Z M 15.875 7.113281 "/>
<path style=" stroke:none;fill-rule:nonzero;fill:rgb(25.882354%,25.882354%,25.882354%);fill-opacity:1;" d="M 22.488281 26.957031 L 47.625 26.957031 C 48.355469 26.957031 48.949219 27.550781 48.949219 28.28125 C 48.949219 29.011719 48.355469 29.605469 47.625 29.605469 L 22.488281 29.605469 C 21.757812 29.605469 21.167969 29.011719 21.167969 28.28125 C 21.167969 27.550781 21.757812 26.957031 22.488281 26.957031 Z M 22.488281 26.957031 "/>
<path style=" stroke:none;fill-rule:nonzero;fill:rgb(87.843138%,87.843138%,87.843138%);fill-opacity:1;" d="M 15.875 5.792969 C 14.410156 5.792969 13.230469 6.972656 13.230469 8.4375 C 13.230469 9.902344 14.410156 11.082031 15.875 11.082031 C 17.339844 11.082031 18.519531 9.902344 18.519531 8.4375 C 18.519531 6.972656 17.339844 5.792969 15.875 5.792969 Z M 15.875 7.113281 C 16.609375 7.113281 17.199219 7.703125 17.199219 8.4375 C 17.199219 9.171875 16.609375 9.761719 15.875 9.761719 C 15.140625 9.761719 14.550781 9.171875 14.550781 8.4375 C 14.550781 7.703125 15.140625 7.113281 15.875 7.113281 Z M 15.875 7.113281 "/>
<path style=" stroke:none;fill-rule:nonzero;fill:rgb(25.882354%,25.882354%,25.882354%);fill-opacity:1;" d="M 15.875 34.894531 L 17.199219 34.894531 C 17.929688 34.894531 18.519531 35.488281 18.519531 36.21875 C 18.519531 36.949219 17.929688 37.542969 17.199219 37.542969 L 15.875 37.542969 C 15.144531 37.542969 14.550781 36.949219 14.550781 36.21875 C 14.550781 35.488281 15.144531 34.894531 15.875 34.894531 Z M 15.875 34.894531 "/>
<path style=" stroke:none;fill-rule:nonzero;fill:rgb(1.176471%,60.784316%,89.803922%);fill-opacity:0.235294;" d="M 31.75 7.113281 C 32.480469 7.113281 33.074219 7.707031 33.074219 8.4375 C 33.074219 9.167969 32.480469 9.761719 31.75 9.761719 C 31.019531 9.761719 30.425781 9.167969 30.425781 8.4375 C 30.425781 7.707031 31.019531 7.113281 31.75 7.113281 Z M 31.75 7.113281 "/>
<path style=" stroke:none;fill-rule:nonzero;fill:rgb(25.882354%,25.882354%,25.882354%);fill-opacity:1;" d="M 15.875 42.832031 L 17.199219 42.832031 C 17.929688 42.832031 18.519531 43.425781 18.519531 44.15625 C 18.519531 44.886719 17.929688 45.480469 17.199219 45.480469 L 15.875 45.480469 C 15.144531 45.480469 14.550781 44.886719 14.550781 44.15625 C 14.550781 43.425781 15.144531 42.832031 15.875 42.832031 Z M 15.875 42.832031 "/>
<path style=" stroke:none;fill-rule:nonzero;fill:rgb(87.843138%,87.843138%,87.843138%);fill-opacity:1;" d="M 31.75 5.792969 C 30.285156 5.792969 29.105469 6.972656 29.105469 8.4375 C 29.105469 9.902344 30.285156 11.082031 31.75 11.082031 C 33.214844 11.082031 34.394531 9.902344 34.394531 8.4375 C 34.394531 6.972656 33.214844 5.792969 31.75 5.792969 Z M 31.75 7.113281 C 32.484375 7.113281 33.074219 7.703125 33.074219 8.4375 C 33.074219 9.171875 32.484375 9.761719 31.75 9.761719 C 31.015625 9.761719 30.425781 9.171875 30.425781 8.4375 C 30.425781 7.703125 31.015625 7.113281 31.75 7.113281 Z M 31.75 7.113281 "/>
<path style=" stroke:none;fill-rule:nonzero;fill:rgb(25.882354%,25.882354%,25.882354%);fill-opacity:1;" d="M 22.488281 19.019531 L 34.394531 19.019531 C 35.125 19.019531 35.71875 19.613281 35.71875 20.34375 C 35.71875 21.074219 35.125 21.667969 34.394531 21.667969 L 22.488281 21.667969 C 21.757812 21.667969 21.167969 21.074219 21.167969 20.34375 C 21.167969 19.613281 21.757812 19.019531 22.488281 19.019531 Z M 22.488281 19.019531 "/>
<path style=" stroke:none;fill-rule:nonzero;fill:rgb(1.176471%,60.784316%,89.803922%);fill-opacity:0.235294;" d="M 47.625 7.113281 C 48.355469 7.113281 48.949219 7.707031 48.949219 8.4375 C 48.949219 9.167969 48.355469 9.761719 47.625 9.761719 C 46.894531 9.761719 46.300781 9.167969 46.300781 8.4375 C 46.300781 7.707031 46.894531 7.113281 47.625 7.113281 Z M 47.625 7.113281 "/>
<path style=" stroke:none;fill-rule:nonzero;fill:rgb(25.882354%,25.882354%,25.882354%);fill-opacity:1;" d="M 22.488281 34.894531 L 43.65625 34.894531 C 44.386719 34.894531 44.980469 35.445312 44.980469 36.125 L 44.980469 36.3125 C 44.980469 36.992188 44.386719 37.542969 43.65625 37.542969 L 22.488281 37.542969 C 21.757812 37.542969 21.167969 36.992188 21.167969 36.3125 L 21.167969 36.125 C 21.167969 35.445312 21.757812 34.894531 22.488281 34.894531 Z M 22.488281 34.894531 "/>
<path style=" stroke:none;fill-rule:nonzero;fill:rgb(87.843138%,87.843138%,87.843138%);fill-opacity:1;" d="M 47.625 5.792969 C 46.160156 5.792969 44.980469 6.972656 44.980469 8.4375 C 44.980469 9.902344 46.160156 11.082031 47.625 11.082031 C 49.089844 11.082031 50.269531 9.902344 50.269531 8.4375 C 50.269531 6.972656 49.089844 5.792969 47.625 5.792969 Z M 47.625 7.113281 C 48.359375 7.113281 48.949219 7.703125 48.949219 8.4375 C 48.949219 9.171875 48.359375 9.761719 47.625 9.761719 C 46.890625 9.761719 46.300781 9.171875 46.300781 8.4375 C 46.300781 7.703125 46.890625 7.113281 47.625 7.113281 Z M 47.625 7.113281 "/>
<path style=" stroke:none;fill-rule:nonzero;fill:rgb(25.882354%,25.882354%,25.882354%);fill-opacity:1;" d="M 15.875 26.957031 L 17.199219 26.957031 C 17.929688 26.957031 18.519531 27.550781 18.519531 28.28125 C 18.519531 29.011719 17.929688 29.605469 17.199219 29.605469 L 15.875 29.605469 C 15.144531 29.605469 14.550781 29.011719 14.550781 28.28125 C 14.550781 27.550781 15.144531 26.957031 15.875 26.957031 Z M 15.875 26.957031 "/>
<path style=" stroke:none;fill-rule:nonzero;fill:rgb(25.882354%,25.882354%,25.882354%);fill-opacity:1;" d="M 22.488281 42.832031 L 38.363281 42.832031 C 39.09375 42.832031 39.6875 43.425781 39.6875 44.15625 C 39.6875 44.886719 39.09375 45.480469 38.363281 45.480469 L 22.488281 45.480469 C 21.757812 45.480469 21.167969 44.886719 21.167969 44.15625 C 21.167969 43.425781 21.757812 42.832031 22.488281 42.832031 Z M 22.488281 42.832031 "/>
<path style=" stroke:none;fill-rule:nonzero;fill:rgb(25.882354%,25.882354%,25.882354%);fill-opacity:1;" d="M 41.011719 19.019531 L 47.625 19.019531 C 48.355469 19.019531 48.949219 19.613281 48.949219 20.34375 C 48.949219 21.074219 48.355469 21.667969 47.625 21.667969 L 41.011719 21.667969 C 40.28125 21.667969 39.6875 21.074219 39.6875 20.34375 C 39.6875 19.613281 40.28125 19.019531 41.011719 19.019531 Z M 41.011719 19.019531 "/>
<path style=" stroke:none;fill-rule:nonzero;fill:rgb(74.117649%,74.117649%,74.117649%);fill-opacity:1;" d="M 52.917969 48.125 L 42.332031 58.707031 L 51.59375 58.707031 C 52.328125 58.707031 52.917969 58.117188 52.917969 57.386719 Z M 52.917969 48.125 "/>
<path style=" stroke:none;fill-rule:nonzero;fill:rgb(87.843138%,87.843138%,87.843138%);fill-opacity:1;" d="M 42.332031 58.707031 L 52.917969 48.125 L 43.65625 48.125 C 42.921875 48.125 42.332031 48.714844 42.332031 49.449219 Z M 42.332031 58.707031 "/>
</g>
</svg>
